www/assets/icons/price_check.svg

<svg xmlns="http://www.w3.org/2000/svg" width="24" height="24" viewBox="0 0 24 24" fill='currentColor'><path d="M11 13V9c0-.55-.45-1-1-1H6V6h5V4H8.5V3h-2v1H5c-.55 0-1 .45-1 1v4c0 .55.45 1 1 1h4v2H4v2h2.5v1h2v-1H10c.55 0 1-.45 1-1m7.59-.48-5.66 5.65-2.83-2.83-1.41 1.42L12.93 21 20 13.93z"/></svg>

<svg width="24" height="24" viewBox="0 0 24 24" xmlns="http://www.w3.org/2000/svg" fill='currentColor'><path d="M11 13V9C11 8.45 10.55 8 10 8H6V6H11V4H8.5V3H6.5V4H5C4.45 4 4 4.45 4 5V9C4 9.55 4.45 10 5 10H9V12H4V14H6.5V15H8.5V14H10C10.55 14 11 13.55 11 13Z"/><path d="M18.59 12.52L12.93 18.17L10.1 15.34L8.69 16.76L12.93 21L20 13.93L18.59 12.52Z"/></svg>
